; generated by PrusaSlicer 2.3.0+win64 on 2021-03-06 at 21:04:16 UTC


;
;

;
;
; 

; external perimeters extrusion width = 0.40mm
; perimeters extrusion width = 0.40mm
; infill extrusion width = 0.45mm
; solid infill extrusion width = 0.45mm
; top infill extrusion width = 0.40mm
; first layer extrusion width = 0.42mm

M73 P0 R96
M201 X1250 Y1250 Z400 E5000 ; sets maximum accelerations, mm/sec^2
M203 X180 Y180 Z12 E80 ; sets maximum feedrates, mm/sec
M204 P1250 R1250 T1250 ; sets acceleration (P, T) and retract acceleration (R), mm/sec^2
M205 X8.00 Y8.00 Z2.00 E10.00 ; sets the jerk limits, mm/sec
M205 S0 T0 ; sets the minimum extruding and travel feed rate, mm/sec
M107
;TYPE:Custom
G90 ; use absolute coordinates
M83 ; extruder relative mode
M104 S170 ; set extruder temp for bed leveling
M140 S60 ; set bed temp
M109 R170 ; wait for bed leveling temp
M190 S60 ; wait for bed temp
G28 ; home all without mesh bed level
G29 ; mesh bed leveling 
M104 S215 ; set extruder temp
G92 E0.0
G1 Y-2.0 X179 F2400
G1 Z3 F720
M109 S215 ; wait for extruder temp

; intro line
G1 X170 F1000
G1 Z0.2 F720
G1 X110.0 E8.0 F900
G1 X40.0 E10.0 F700
G92 E0.0

M221 S95 ; set flow
G21 ; set units to millimeters
G90 ; use absolute coordinates
M83 ; use relative distances for extrusion
M900 K0.2 ; Filament gcode LA 1.5
; ; Filament gcode LA 1.0
;LAYER_CHANGE
;Z:0.2
;HEIGHT:0.2
;BEFORE_LAYER_CHANGE
G92 E0.0
;0.2


G1 Z0.200 F9000.000
;AFTER_LAYER_CHANGE
;0.2
G1 E-3.20000 F4200.000
G1 Z0.400 F9000.000
G1 X72.586 Y68.543
G1 Z0.200
G1 E3.20000 F2400.000
M204 S800
;TYPE:Skirt
;WIDTH:0.42
G1 F1200.000
G1 X76.981 Y66.302 E0.15470
G1 X77.469 Y66.130 E0.01621
G1 X77.982 Y66.066 E0.01621
G1 X96.017 Y66.066 E0.56549
G1 X96.516 Y66.120 E0.01574
G1 X96.996 Y66.279 E0.01585
G1 X101.409 Y68.518 E0.15514
G1 X105.719 Y72.787 E0.19019
G1 X106.155 Y73.412 E0.02390
G1 X110.004 Y81.436 E0.27904
G1 X110.190 Y82.022 E0.01929
G1 X110.228 Y94.462 E0.39005
G1 X110.075 Y95.282 E0.02614
G1 X108.148 Y99.490 E0.14514
G1 X107.712 Y100.107 E0.02367
G1 X99.531 Y108.273 E0.36242
G1 X99.103 Y108.556 E0.01609
G1 X95.073 Y110.571 E0.14127
G1 X94.566 Y110.755 E0.01692
G1 X94.030 Y110.820 E0.01692
G1 X79.987 Y110.820 E0.44032
G1 X79.175 Y110.668 E0.02590
G1 X74.930 Y108.559 E0.14861
G1 X74.487 Y108.265 E0.01668
G1 X66.319 Y100.111 E0.36187
G1 X65.913 Y99.556 E0.02154
G1 X63.861 Y95.452 E0.14390
G1 X63.653 Y94.722 E0.02378
G1 X63.637 Y82.417 E0.38583
G1 X63.789 Y81.605 E0.02590
G1 X67.894 Y73.367 E0.28859
G1 X68.214 Y72.890 E0.01799
G1 X72.543 Y68.585 E0.19143
M204 S1250
; printing object Jake_Keychain.stl id:0 copy 0
G1 E-2.24000 F4200.000
;WIPE_START
G1 F7200.000
G1 X74.007 Y67.832 E-0.91200
;WIPE_END
G1 E-0.04800 F4200.000
G1 Z0.400 F9000.000
G1 X84.421 Y80.853
G1 Z0.200
G1 E3.20000 F2400.000
M204 S800
;TYPE:External perimeter
G1 F1200.000
G1 X89.607 Y80.853 E0.16261
G1 X89.615 Y81.446 E0.01860
G1 X89.673 Y81.968 E0.01644
G1 X89.745 Y82.233 E0.00863
G1 X89.531 Y82.233 E0.00670
G1 X88.537 Y82.067 E0.03160
G1 X88.020 Y82.039 E0.01624
G1 X86.511 Y82.034 E0.04732
G1 X85.493 Y82.067 E0.03193
G1 X84.496 Y82.233 E0.03168
G1 X84.278 Y82.233 E0.00684
G1 X84.354 Y81.969 E0.00861
G1 X84.413 Y81.446 E0.01650
G1 X84.420 Y80.913 E0.01672
M204 S1250
G1 X84.763 Y81.060 F9000.000
G1 X84.793 Y81.230
M204 S800
;TYPE:Perimeter
G1 F1200.000
G1 X89.235 Y81.230 E0.13927
G1 X89.238 Y81.470 E0.00752
G1 X89.276 Y81.808 E0.01068
G1 X88.578 Y81.692 E0.02217
G1 X88.031 Y81.662 E0.01719
G1 X86.505 Y81.657 E0.04785
G1 X85.455 Y81.691 E0.03293
G1 X84.752 Y81.808 E0.02238
G1 X84.792 Y81.290 E0.01629
M204 S1250
G1 E-2.24000 F4200.000
;WIPE_START
G1 F7200.000
G1 X86.437 Y81.268 E-0.91200
;WIPE_END
G1 E-0.04800 F4200.000
G1 Z0.400 F9000.000
G1 X90.850 Y89.279
G1 Z0.200
G1 E3.20000 F2400.000
M204 S800
G1 F1200.000
G1 X92.850 Y89.279 E0.06271
G1 X92.850 Y87.279 E0.06271
G1 X99.178 Y87.279 E0.19842
G1 X99.178 Y89.279 E0.06271
G1 X101.038 Y89.279 E0.05831
G1 X101.038 Y95.607 E0.19842
G1 X99.007 Y95.607 E0.06366
G1 X99.007 Y97.607 E0.06271
G1 X92.850 Y97.607 E0.19307
G1 X92.850 Y95.607 E0.06271
G1 X90.850 Y95.607 E0.06271
G1 X90.850 Y89.339 E0.19654
M204 S1250
G1 X91.227 Y89.656 F9000.000
M204 S800
G1 F1200.000
G1 X93.227 Y89.656 E0.06271
G1 X93.227 Y87.656 E0.06271
G1 X98.801 Y87.656 E0.17477
G1 X98.801 Y89.656 E0.06271
G1 X100.661 Y89.656 E0.05831
G1 X100.661 Y95.230 E0.17477
G1 X98.630 Y95.230 E0.06366
G1 X98.630 Y97.230 E0.06271
G1 X93.227 Y97.230 E0.16943
G1 X93.227 Y95.230 E0.06271
G1 X91.227 Y95.230 E0.06271
G1 X91.227 Y89.716 E0.17289
M204 S1250
G1 X91.604 Y90.033 F9000.000
M204 S800
;TYPE:External perimeter
G1 F1200.000
G1 X93.604 Y90.033 E0.06271
G1 X93.604 Y88.033 E0.06271
G1 X98.424 Y88.033 E0.15113
G1 X98.424 Y90.033 E0.06271
G1 X100.283 Y90.033 E0.05831
G1 X100.283 Y94.853 E0.15113
G1 X98.253 Y94.853 E0.06366
G1 X98.253 Y96.853 E0.06271
G1 X93.604 Y96.853 E0.14578
G1 X93.604 Y94.853 E0.06271
G1 X91.604 Y94.853 E0.06271
G1 X91.604 Y90.093 E0.14925
M204 S1250
G1 X91.551 Y89.637 F9000.000
G1 E-2.24000 F4200.000
;WIPE_START
G1 F7200.000
G1 X93.249 Y90.044 E-0.91200
;WIPE_END
G1 E-0.04800 F4200.000
G1 Z0.400 F9000.000
G1 X91.180 Y87.607
G1 Z0.200
G1 E3.20000 F2400.000
M204 S800
;TYPE:Perimeter
G1 F1200.000
G1 X82.847 Y87.607 E0.26128
G1 X82.855 Y84.415 E0.10009
G1 X82.887 Y83.837 E0.01817
G1 X82.927 Y83.597 E0.00761
G1 X80.850 Y83.616 E0.06514
G1 X80.850 Y75.279 E0.26140
G1 X85.178 Y75.279 E0.13571
G1 X85.178 Y77.279 E0.06271
G1 X88.870 Y77.279 E0.11575
G1 X88.870 Y75.279 E0.06271
G1 X93.178 Y75.279 E0.13508
G1 X93.178 Y83.616 E0.26140
G1 X91.100 Y83.597 E0.06514
G1 X91.140 Y83.837 E0.00761
G1 X91.172 Y84.415 E0.01817
G1 X91.180 Y87.547 E0.09821
M204 S1250
G1 X90.802 Y87.230 F9000.000
M204 S800
G1 F1200.000
G1 X83.225 Y87.230 E0.23757
G1 X83.232 Y84.426 E0.08792
G1 X83.262 Y83.878 E0.01720
G1 X83.379 Y83.182 E0.02215
G1 X83.042 Y83.219 E0.01063
G1 X81.227 Y83.236 E0.05692
G1 X81.227 Y75.656 E0.23765
G1 X84.801 Y75.656 E0.11207
G1 X84.801 Y77.656 E0.06271
G1 X89.247 Y77.656 E0.13940
G1 X89.247 Y75.656 E0.06271
G1 X92.801 Y75.656 E0.11144
G1 X92.801 Y83.236 E0.23765
G1 X90.988 Y83.219 E0.05683
G1 X90.649 Y83.181 E0.01072
G1 X90.765 Y83.878 E0.02217
G1 X90.795 Y84.426 E0.01720
G1 X90.802 Y87.170 E0.08604
M204 S1250
G1 X90.424 Y86.853 F9000.000
M204 S800
;TYPE:External perimeter
G1 F1200.000
G1 X83.603 Y86.853 E0.21387
G1 X83.609 Y84.437 E0.07576
G1 X83.638 Y83.920 E0.01624
G1 X83.804 Y82.926 E0.03160
G1 X83.804 Y82.713 E0.00666
G1 X83.542 Y82.784 E0.00849
G1 X83.019 Y82.842 E0.01650
G1 X81.604 Y82.855 E0.04438
G1 X81.604 Y76.033 E0.21390
M73 P0 R95
G1 X84.424 Y76.033 E0.08842
G1 X84.424 Y78.033 E0.06271
G1 X89.624 Y78.033 E0.16304
G1 X89.624 Y76.033 E0.06271
G1 X92.424 Y76.033 E0.08779
G1 X92.424 Y82.855 E0.21390
G1 X91.011 Y82.842 E0.04430
G1 X90.489 Y82.784 E0.01646
G1 X90.224 Y82.712 E0.00863
G1 X90.224 Y82.926 E0.00670
G1 X90.390 Y83.920 E0.03160
G1 X90.418 Y84.437 E0.01624
G1 X90.424 Y86.793 E0.07387
M204 S1250
G1 X90.426 Y87.253 F9000.000
G1 E-2.24000 F4200.000
;WIPE_START
G1 F7200.000
G1 X88.778 Y86.808 E-0.91200
;WIPE_END
G1 E-0.04800 F4200.000
G1 Z0.400 F9000.000
G1 X83.178 Y89.279
G1 Z0.200
G1 E3.20000 F2400.000
M204 S800
;TYPE:Perimeter
G1 F1200.000
G1 X83.178 Y95.607 E0.19842
G1 X81.178 Y95.607 E0.06271
G1 X81.178 Y97.607 E0.06271
G1 X74.850 Y97.607 E0.19842
G1 X74.850 Y95.607 E0.06271
G1 X72.850 Y95.607 E0.06271
G1 X72.850 Y89.279 E0.19842
G1 X74.850 Y89.279 E0.06271
G1 X74.850 Y87.279 E0.06271
G1 X81.178 Y87.279 E0.19842
G1 X81.178 Y89.279 E0.06271
G1 X83.118 Y89.279 E0.06083
M204 S1250
G1 X82.801 Y89.656 F9000.000
M204 S800
G1 F1200.000
G1 X82.801 Y95.230 E0.17477
G1 X80.801 Y95.230 E0.06271
G1 X80.801 Y97.230 E0.06271
G1 X75.227 Y97.230 E0.17477
G1 X75.227 Y95.230 E0.06271
G1 X73.227 Y95.230 E0.06271
G1 X73.227 Y89.656 E0.17477
G1 X75.227 Y89.656 E0.06271
G1 X75.227 Y87.656 E0.06271
G1 X80.801 Y87.656 E0.17477
G1 X80.801 Y89.656 E0.06271
G1 X82.741 Y89.656 E0.06083
M204 S1250
G1 X82.424 Y90.033 F9000.000
M204 S800
;TYPE:External perimeter
G1 F1200.000
G1 X82.424 Y94.853 E0.15113
G1 X80.424 Y94.853 E0.06271
G1 X80.424 Y96.853 E0.06271
G1 X75.604 Y96.853 E0.15113
G1 X75.604 Y94.853 E0.06271
G1 X73.604 Y94.853 E0.06271
G1 X73.604 Y90.033 E0.15113
G1 X75.604 Y90.033 E0.06271
G1 X75.604 Y88.033 E0.06271
G1 X80.424 Y88.033 E0.15113
G1 X80.424 Y90.033 E0.06271
G1 X82.364 Y90.033 E0.06083
M204 S1250
G1 X82.810 Y90.137 F9000.000
G1 E-2.24000 F4200.000
;WIPE_START
G1 F7200.000
G1 X82.384 Y91.679 E-0.91200
;WIPE_END
G1 E-0.04800 F4200.000
G1 Z0.400 F9000.000
G1 X73.178 Y99.279
G1 Z0.200
G1 E3.20000 F2400.000
M204 S800
;TYPE:Perimeter
G1 F1200.000
G1 X71.178 Y99.279 E0.06271
G1 X71.178 Y97.279 E0.06271
G1 X69.178 Y97.279 E0.06271
G1 X69.178 Y93.279 E0.12542
G1 X67.178 Y93.279 E0.06271
G1 X67.178 Y83.607 E0.30325
G1 X69.178 Y83.607 E0.06271
G1 X69.178 Y81.607 E0.06271
G1 X71.178 Y81.607 E0.06271
G1 X71.178 Y75.607 E0.18813
G1 X73.178 Y75.607 E0.06271
G1 X73.178 Y73.607 E0.06271
G1 X75.178 Y73.607 E0.06271
G1 X75.178 Y71.607 E0.06271
G1 X79.178 Y71.607 E0.12542
G1 X79.178 Y69.607 E0.06271
G1 X94.850 Y69.607 E0.49137
G1 X94.850 Y71.607 E0.06271
G1 X98.850 Y71.607 E0.12542
G1 X98.850 Y73.607 E0.06271
G1 X100.850 Y73.607 E0.06271
G1 X100.850 Y75.607 E0.06271
G1 X102.850 Y75.607 E0.06271
G1 X102.850 Y81.749 E0.19257
G1 X104.850 Y81.749 E0.06271
G1 X104.850 Y83.607 E0.05827
G1 X106.687 Y83.607 E0.05760
G1 X106.687 Y93.279 E0.30325
G1 X104.850 Y93.279 E0.05760
G1 X104.850 Y97.279 E0.12542
G1 X102.648 Y97.279 E0.06903
G1 X102.648 Y99.279 E0.06271
G1 X100.662 Y99.279 E0.06228
G1 X100.662 Y101.114 E0.05755
G1 X98.850 Y101.114 E0.05682
G1 X98.850 Y103.057 E0.06089
G1 X96.850 Y103.057 E0.06271
G1 X96.850 Y105.279 E0.06969
G1 X92.850 Y105.279 E0.12542
G1 X92.850 Y107.279 E0.06271
G1 X81.178 Y107.279 E0.36596
G1 X81.178 Y105.279 E0.06271
G1 X77.178 Y105.279 E0.12542
G1 X77.178 Y103.279 E0.06271
G1 X75.178 Y103.279 E0.06271
G1 X75.178 Y101.279 E0.06271
G1 X73.178 Y101.279 E0.06271
G1 X73.178 Y99.339 E0.06083
M204 S1250
G1 X72.801 Y99.656 F9000.000
M204 S800
G1 F1200.000
G1 X70.801 Y99.656 E0.06271
G1 X70.801 Y97.656 E0.06271
G1 X68.801 Y97.656 E0.06271
G1 X68.801 Y93.656 E0.12542
G1 X66.801 Y93.656 E0.06271
G1 X66.801 Y83.230 E0.32689
G1 X68.801 Y83.230 E0.06271
G1 X68.801 Y81.230 E0.06271
G1 X70.801 Y81.230 E0.06271
G1 X70.801 Y75.230 E0.18813
G1 X72.801 Y75.230 E0.06271
M73 P1 R95
G1 X72.801 Y73.230 E0.06271
G1 X74.801 Y73.230 E0.06271
G1 X74.801 Y71.230 E0.06271
G1 X78.801 Y71.230 E0.12542
G1 X78.801 Y69.230 E0.06271
G1 X95.227 Y69.230 E0.51502
G1 X95.227 Y71.230 E0.06271
G1 X99.227 Y71.230 E0.12542
G1 X99.227 Y73.230 E0.06271
G1 X101.227 Y73.230 E0.06271
G1 X101.227 Y75.230 E0.06271
G1 X103.227 Y75.230 E0.06271
G1 X103.227 Y81.372 E0.19257
G1 X105.227 Y81.372 E0.06271
G1 X105.227 Y83.230 E0.05827
G1 X107.064 Y83.230 E0.05760
G1 X107.064 Y93.656 E0.32689
G1 X105.227 Y93.656 E0.05760
G1 X105.227 Y97.656 E0.12542
G1 X103.025 Y97.656 E0.06903
G1 X103.025 Y99.656 E0.06271
G1 X101.039 Y99.656 E0.06228
G1 X101.039 Y101.492 E0.05755
G1 X99.227 Y101.492 E0.05682
G1 X99.227 Y103.434 E0.06089
G1 X97.227 Y103.434 E0.06271
G1 X97.227 Y105.656 E0.06969
G1 X93.227 Y105.656 E0.12542
G1 X93.227 Y107.656 E0.06271
G1 X80.801 Y107.656 E0.38960
G1 X80.801 Y105.656 E0.06271
G1 X76.801 Y105.656 E0.12542
G1 X76.801 Y103.656 E0.06271
G1 X74.801 Y103.656 E0.06271
G1 X74.801 Y101.656 E0.06271
G1 X72.801 Y101.656 E0.06271
G1 X72.801 Y99.716 E0.06083
M204 S1250
G1 X72.424 Y100.033 F9000.000
M204 S800
;TYPE:External perimeter
G1 F1200.000
G1 X70.424 Y100.033 E0.06271
G1 X70.424 Y98.033 E0.06271
G1 X68.424 Y98.033 E0.06271
G1 X68.424 Y94.033 E0.12542
G1 X66.424 Y94.033 E0.06271
G1 X66.424 Y82.853 E0.35054
G1 X68.424 Y82.853 E0.06271
G1 X68.424 Y80.853 E0.06271
G1 X70.424 Y80.853 E0.06271
G1 X70.424 Y74.853 E0.18813
G1 X72.424 Y74.853 E0.06271
G1 X72.424 Y72.853 E0.06271
G1 X74.424 Y72.853 E0.06271
G1 X74.424 Y70.853 E0.06271
G1 X78.424 Y70.853 E0.12542
G1 X78.424 Y68.853 E0.06271
G1 X95.604 Y68.853 E0.53867
G1 X95.604 Y70.853 E0.06271
G1 X99.604 Y70.853 E0.12542
G1 X99.604 Y72.853 E0.06271
G1 X101.604 Y72.853 E0.06271
G1 X101.604 Y74.853 E0.06271
G1 X103.604 Y74.853 E0.06271
G1 X103.604 Y80.995 E0.19257
G1 X105.604 Y80.995 E0.06271
G1 X105.604 Y82.853 E0.05827
G1 X107.441 Y82.853 E0.05760
G1 X107.441 Y94.033 E0.35054
G1 X105.604 Y94.033 E0.05760
G1 X105.604 Y98.033 E0.12542
G1 X103.402 Y98.033 E0.06903
G1 X103.402 Y100.033 E0.06271
G1 X101.416 Y100.033 E0.06228
G1 X101.416 Y101.869 E0.05755
G1 X99.604 Y101.869 E0.05682
G1 X99.604 Y103.811 E0.06089
G1 X97.604 Y103.811 E0.06271
G1 X97.604 Y106.033 E0.06969
G1 X93.604 Y106.033 E0.12542
G1 X93.604 Y108.033 E0.06271
G1 X80.424 Y108.033 E0.41325
G1 X80.424 Y106.033 E0.06271
G1 X76.424 Y106.033 E0.12542
G1 X76.424 Y104.033 E0.06271
G1 X74.424 Y104.033 E0.06271
G1 X74.424 Y102.033 E0.06271
G1 X72.424 Y102.033 E0.06271
G1 X72.424 Y100.093 E0.06083
M204 S1250
G1 X72.320 Y99.647 F9000.000
G1 E-2.24000 F4200.000
;WIPE_START
G1 F7200.000
G1 X70.779 Y100.044 E-0.91200
;WIPE_END
G1 E-0.04800 F4200.000
G1 Z0.400 F9000.000
G1 X84.982 Y81.419
G1 Z0.200
G1 E3.20000 F2400.000
M204 S800
;TYPE:Gap fill
;WIDTH:0.126984
G1 F1200.000
G1 X85.051 Y81.493 E0.00071
G1 X85.435 Y81.461 E0.00270
G1 X86.486 Y81.444 E0.00734
M204 S1250
G1 X86.881 Y81.444 F9000.000
M204 S800
;WIDTH:0.0971262
G1 F1200.000
G1 X88.038 Y81.446 E0.00521
M204 S1250
M204 S800
;WIDTH:0.12901
G1 X88.606 Y81.462 E0.00407
M204 S1250
M204 S800
;WIDTH:0.159667
G1 X88.791 Y81.477 E0.00180
M204 S1250
M204 S800
;WIDTH:0.184602
G1 X88.976 Y81.493 E0.00219
G1 X89.045 Y81.419 E0.00119
M204 S1250
G1 E-2.24000 F4200.000
;WIPE_START
G1 F7200.000
G1 X88.976 Y81.493 E-0.05595
G1 X88.791 Y81.477 E-0.10290
;WIPE_END
G1 E-0.80115 F4200.000
G1 Z0.400 F9000.000
G1 X105.704 Y83.721
G1 Z0.200
G1 E3.20000 F2400.000
M204 S800
;TYPE:Solid infill
;WIDTH:0.42027
G1 F1200.000
G1 X106.404 Y84.420 E0.03104
G1 X106.404 Y84.954 E0.01674
G1 X105.171 Y83.721 E0.05472
M204 S1250
G1 E-2.24000 F4200.000
;WIPE_START
G1 F7200.000
G1 X106.334 Y84.884 E-0.91200
;WIPE_END
G1 E-0.04800 F4200.000
G1 Z0.400 F9000.000
G1 X104.736 Y82.219
G1 Z0.200
G1 E3.20000 F2400.000
M204 S800
G1 F1200.000
G1 X104.549 Y82.032 E0.00830
G1 X104.016 Y82.032 E0.01674
G1 X104.567 Y82.583 E0.02445
G1 X104.567 Y83.117 E0.01674
G1 X103.312 Y81.862 E0.05566
M204 S1250
G1 E-2.24000 F4200.000
;WIPE_START
G1 F7200.000
G1 X104.476 Y83.026 E-0.91200
;WIPE_END
G1 E-0.04800 F4200.000
G1 Z0.400 F9000.000
G1 X102.736 Y76.483
G1 Z0.200
G1 E3.20000 F2400.000
M204 S800
G1 F1200.000
G1 X102.143 Y75.890 E0.02632
G1 X101.610 Y75.890 E0.01674
G1 X102.736 Y77.017 E0.05000
M204 S1250
G1 E-2.24000 F4200.000
;WIPE_START
G1 F7200.000
G1 X101.610 Y75.890 E-0.88309
G1 X101.662 Y75.890 E-0.02891
;WIPE_END
G1 E-0.04800 F4200.000
G1 Z0.400 F9000.000
G1 X100.736 Y74.483
G1 Z0.200
G1 E3.20000 F2400.000
M204 S800
G1 F1200.000
G1 X100.143 Y73.890 E0.02632
G1 X99.610 Y73.890 E0.01674
G1 X100.736 Y75.017 E0.05000
M204 S1250
G1 E-2.24000 F4200.000
;WIPE_START
G1 F7200.000
G1 X99.610 Y73.890 E-0.88310
G1 X99.662 Y73.890 E-0.02890
;WIPE_END
G1 E-0.04800 F4200.000
G1 Z0.400 F9000.000
G1 X98.736 Y72.483
G1 Z0.200
G1 E3.20000 F2400.000
M204 S800
G1 F1200.000
G1 X98.143 Y71.890 E0.02632
G1 X97.610 Y71.890 E0.01674
G1 X98.736 Y73.017 E0.05000
M204 S1250
G1 E-2.24000 F4200.000
;WIPE_START
G1 F7200.000
G1 X97.610 Y71.890 E-0.88310
G1 X97.662 Y71.890 E-0.02890
;WIPE_END
G1 E-0.04800 F4200.000
G1 Z0.400 F9000.000
G1 X96.906 Y71.721
G1 Z0.200
G1 E3.20000 F2400.000
M204 S800
G1 F1200.000
G1 X98.567 Y73.381 E0.07368
G1 X98.567 Y73.890 E0.01598
G1 X99.076 Y73.890 E0.01598
G1 X100.567 Y75.381 E0.06615
G1 X100.567 Y75.890 E0.01598
G1 X101.076 Y75.890 E0.01598
G1 X102.567 Y77.381 E0.06615
G1 X102.567 Y77.915 E0.01674
G1 X96.542 Y71.890 E0.26733
G1 X96.009 Y71.890 E0.01674
G1 X102.567 Y78.448 E0.29101
G1 X102.567 Y78.982 E0.01674
G1 X95.305 Y71.721 E0.32221
M204 S1250
G1 E-2.24000 F4200.000
;WIPE_START
G1 F7200.000
G1 X96.469 Y72.884 E-0.91200
;WIPE_END
